Hatter-kde/actions/24/messagebox_warning.svg

<?xml version="1.0" encoding="UTF-8"?>
<svg viewBox="0 0 24 24" xmlns="http://www.w3.org/2000/svg">
 <defs id="defs3051">
  <style id="current-color-scheme" type="text/css">.ColorScheme-Text {
        color:#363636;
      }
      .ColorScheme-NegativeText {
        color:#da4453;
      }</style>
 </defs>
 <path class="ColorScheme-Text" d="m5 4v16h1 7 6v-1-5-10h-1-12-1zm1 1h12v9 5h-5-7v-14z" fill="currentColor"/>
 <path class="ColorScheme-NegativeText" d="m15 12v4h1v-4h-1zm0 5v1h1v-1h-1z" fill="currentColor"/>
</svg>

<svg xmlns="http://www.w3.org/2000/svg" viewBox="0 0 24 24">
  <defs id="defs3051">
    <style type="text/css" id="current-color-scheme">
      .ColorScheme-Text {
        color:#363636;
      }
      .ColorScheme-NegativeText {
        color:#da4453;
      }
      </style>
  </defs>
  <path 
     style="fill:currentColor;fill-opacity:1;stroke:none" 
     d="M 5 4 L 5 20 L 6 20 L 13 20 L 19 20 L 19 19 L 19 14 L 19 4 L 18 4 L 6 4 L 5 4 z M 6 5 L 18 5 L 18 14 L 18 19 L 13 19 L 6 19 L 6 5 z "
     class="ColorScheme-Text"/>
  <path
     style="fill:currentColor;fill-opacity:1;stroke:none" 
     d="M 15 12 L 15 16 L 16 16 L 16 12 L 15 12 z M 15 17 L 15 18 L 16 18 L 16 17 L 15 17 z "
     class="ColorScheme-NegativeText"
     />
</svg>
